lib/healthicons/icons/outline/people/mental_disorders.svg

<svg fill="none" height="48" viewBox="0 0 48 48" width="48" xmlns="http://www.w3.org/2000/svg"><g fill="#333"><path d="m34.7234 25.5c0 .8284-.6858 1.5-1.5319 1.5-.846 0-1.5319-.6716-1.5319-1.5s.6859-1.5 1.5319-1.5c.8461 0 1.5319.6716 1.5319 1.5z"/><path d="m17.3617 34h4.0851v-2h-4.0851z"/><path d="m21.4468 38h-4.0851v-2h4.0851z"/><g clip-rule="evenodd" fill-rule="evenodd"><path d="m27.2915 22.1457c.4999 0 .5829-.091.742-.2654.0922-.101.21-.2301.4491-.3856.662.4233 1.4431.6452 2.2403.6364l2.5321-.878c.7136-.5605 1.2034-1.3376 1.3876-2.201.1842-.8635.0515-1.7611-.3758-2.5425-.4273-.7815-1.1233-1.3993-1.9716-1.7502-.1936-.836-.6815-1.5838-1.3826-2.1192l-2.4717-.8242h-.2783c-.5498-.7644-1.3751-1.3097-2.3192-1.5321l-4.2781-.2839c-.8808.0697-1.7114.4198-2.3581.9939-.3056-.0686-.6184-.1042-.9323-.106-.7602.0015-1.5037.2126-2.1407.6078-.637.3953-1.1404.9578-1.4493 1.6196l-2.0134 1.3591c-.5011.6469-.7708 1.43-.7695 2.234-.0049.3361.042.6712.1392.9944-.5283.6531-.8123 1.4558-.8071 2.2804-.0012.9564.3822 1.8769 1.0715 2.5722.0556.6847.3067 1.3419.7261 1.9004s.9911.9971 1.6532 1.2684c.763.4557 1.4091 1.0687 1.8907 1.7938.4816.725.6803 1.5437.7861 2.3958h4.2036v-3.9775c-.0009-.7062.2059-1.3986.5969-1.9985.0594-.0911.1148-.1795.1684-.265.2995-.4778.5427-.8659 1.1066-1.1307.6229-.2271 1.1841-.5852 1.6419-1.0474.652.4241 1.423.651 2.2124.651zm1.5355-2.8252.7726.4941c.2436.1558.5241.2571.8189.2947l1.7683-.6132c.2331-.2463.3892-.5435.4564-.8586.0855-.4012.025-.82-.1771-1.1895-.2027-.3707-.5398-.6757-.9658-.852l-.9652-.3993-.2318-1.0006c-.0679-.2931-.2173-.5691-.4373-.7977l-1.7634-.5881h-.9998l-.6102-.8484c-.2331-.3241-.5791-.5742-.9895-.7017l-3.8979-.2586c-.3896.0551-.7471.2208-1.0261.4684l-.7897.7011-1.039-.2335c-.1569-.0352-.3177-.0538-.4794-.0553-.3749.0022-.7372.1071-1.0435.2972-.3079.191-.543.4576-.6848.7615l-.2343.502-2.1548 1.4545c-.1385.2494-.2095.5247-.209.802v.016l-.0002.0161c-.002.1348.0168.2696.0561.4004l.2991.9942-.6571.8125c-.2431.3005-.3682.6619-.3658 1.0264v.0075.0075c-.0006.4278.1704.8497.4945 1.1766l.5122.5167.0583.7177c.0252.3102.1391.6127.3356.8743.1968.2622.4704.4747.7958.608l.1432.0586.1324.0792c.3037.1814.5939.3816.869.5993.3548.2722.7974.6716 1.3704 1.3878.6.75.9282 1.5885 1.0173 1.914h.5226v-.875c0-.0873-.0019-.1919-.0041-.309-.0107-.5747-.0272-1.4576.1517-2.1519.2154-.836.6583-1.6524 1.2128-2.4297s1.3923-1.3203 1.7074-1.4375c.3152-.1172.6343-.2383.9455-.543.2489-.2437.9388-.9453 1.2527-1.2656.355.2331 1.1321.743 1.4002.918s.6224.2734.766.3008c.0385-.0313.1596-.1258.3351-.254.1755-.1281.8657-.5768 1.1888-.7851z"/><path d="m40.5596 25.3658s2.652 2.3361 2.3023 4.2103c-.3497 1.8743-3.8031 2.3904-3.8031 2.3904 0 7.5728-7.3855 7.0907-11.0716 6.3785-1.2258-.2369-2.0426-.4992-2.0426-.4992v1.4231s-.0767.2384-.3136.574c-.5626.7971-2.0285 2.1423-5.5149 2.1423-2.3328.1809-6.3257-1.3143-7.3841-3.4226v-6.4482c-3.73023-2.7299-6.60431-6.4075-6.60431-11.1747 0-3.9622 1.6887-7.7622 4.69461-10.5639 3.0059-2.80178 7.0828-4.37579 11.3338-4.37579 3.2462-.00343 6.4539.6548 9.3985 1.92859 2.3205.91081 4.3521 2.3603 5.9013 4.2103 1.4148 1.9434 2.1989 4.2256 2.2586 6.5735.0128.5395.0051 1.0511-.0024 1.5461-.0263 1.7476-.0495 3.2869.8475 5.1073zm-1.6649 1.2237-.1747-.3545c-1.1287-2.2906-1.0885-4.4163-1.0543-6.2172.0083-.4391.0163-.8588.0068-1.257-.0491-1.9197-.6834-3.7948-1.8402-5.4062-1.3203-1.5584-3.0511-2.7898-5.0377-3.5696l-.033-.01294-.0325-.01405c-2.6815-1.16003-5.6071-1.76113-8.5708-1.758h-.0022c-3.7409 0-7.3095 1.38605-9.9255 3.82439-2.61259 2.4351-4.06036 5.7162-4.06036 9.1153 0 3.8827 2.31966 7.037 5.78456 9.5727l.8198.5999v6.8702c.3413.3966 1.0026.8906 1.9965 1.3202 1.2186.5267 2.4543.7453 3.1838.6887l.0805-.0062h.0807c2.0714 0 3.0485-.5575 3.4697-.8988.1451-.1177.2471-.228.3163-.3156v-3.6858l2.6761.8595.0015.0005.0015.0004.0153.0048c.0171.0052.0459.014.0856.0257.0794.0235.2021.0587.3619.1012.3202.0853.7849.1989 1.3445.3069 1.1367.2192 2.5847.3993 3.9808.3105 1.4185-.0902 2.5571-.4426 3.3168-1.0755.6829-.5689 1.3301-1.589 1.3301-3.6525v-1.7179l1.7272-.2581.0109-.0018c.013-.0022.037-.0063.0707-.0126.0675-.0126.1716-.0335.3004-.0639.2636-.0622.601-.1572.9305-.2892.3422-.137.5904-.2803.7375-.4033.0224-.0188.0397-.0346.0529-.0476-.0081-.0533-.03-.1489-.09-.2943-.1122-.2715-.3055-.5886-.5555-.9189-.244-.3224-.5039-.6076-.7065-.8145-.0998-.1019-.1819-.1809-.2361-.2319-.027-.0254-.0468-.0435-.0581-.0538l-.0066-.006-.0012-.0011-.0011-.0009-.0013-.0012zm1.9886 2.5407c.0001 0-.0002.0005-.0009.0015l-.0019.0027c.0017-.0028.0027-.0042.0028-.0042z"/></g></g></svg>

<svg width="48" height="48" viewBox="0 0 48 48" fill="none" xmlns="http://www.w3.org/2000/svg">
<path d="M34.7234 25.5C34.7234 26.3284 34.0376 27 33.1915 27C32.3455 27 31.6596 26.3284 31.6596 25.5C31.6596 24.6716 32.3455 24 33.1915 24C34.0376 24 34.7234 24.6716 34.7234 25.5Z" fill="#333333"/>
<path d="M17.3617 34H21.4468V32H17.3617V34Z" fill="#333333"/>
<path d="M21.4468 38H17.3617V36H21.4468V38Z" fill="#333333"/>
<path fill-rule="evenodd" clip-rule="evenodd" d="M27.2915 22.1457C27.7914 22.1457 27.8744 22.0547 28.0335 21.8803C28.1257 21.7793 28.2435 21.6502 28.4826 21.4947C29.1446 21.918 29.9257 22.1399 30.7229 22.1311L33.255 21.2531C33.9686 20.6926 34.4584 19.9155 34.6426 19.0521C34.8268 18.1886 34.6941 17.291 34.2668 16.5096C33.8395 15.7281 33.1435 15.1103 32.2952 14.7594C32.1016 13.9234 31.6137 13.1756 30.9126 12.6402L28.4409 11.816H28.1626C27.6128 11.0516 26.7875 10.5063 25.8434 10.2839L21.5653 10C20.6845 10.0697 19.8539 10.4198 19.2072 10.9939C18.9016 10.9253 18.5888 10.8897 18.2749 10.8879C17.5147 10.8894 16.7712 11.1005 16.1342 11.4957C15.4972 11.891 14.9938 12.4535 14.6849 13.1153L12.6715 14.4744C12.1704 15.1213 11.9007 15.9044 11.902 16.7084C11.8971 17.0445 11.944 17.3796 12.0412 17.7028C11.5129 18.3559 11.2289 19.1586 11.2341 19.9832C11.2329 20.9396 11.6163 21.8601 12.3056 22.5554C12.3612 23.2401 12.6123 23.8973 13.0317 24.4558C13.4511 25.0143 14.0228 25.4529 14.6849 25.7242C15.4479 26.1799 16.094 26.7929 16.5756 27.518C17.0572 28.243 17.2559 29.0617 17.3617 29.9138H21.5653V25.9363C21.5644 25.2301 21.7712 24.5377 22.1622 23.9378C22.2216 23.8467 22.277 23.7583 22.3306 23.6728C22.6301 23.195 22.8733 22.8069 23.4372 22.5421C24.0601 22.315 24.6213 21.9569 25.0791 21.4947C25.7311 21.9188 26.5021 22.1457 27.2915 22.1457ZM28.827 19.3205L29.5996 19.8146C29.8432 19.9704 30.1237 20.0717 30.4185 20.1093L32.1868 19.4961C32.4199 19.2498 32.576 18.9526 32.6432 18.6375C32.7287 18.2363 32.6682 17.8175 32.4661 17.448C32.2634 17.0773 31.9263 16.7723 31.5003 16.596L30.5351 16.1967L30.3033 15.1961C30.2354 14.903 30.086 14.627 29.866 14.3984L28.1026 13.8103H27.1028L26.4926 12.9619C26.2595 12.6378 25.9135 12.3877 25.5031 12.2602L21.6052 12.0016C21.2156 12.0567 20.8581 12.2224 20.5791 12.47L19.7894 13.1711L18.7504 12.9376C18.5935 12.9024 18.4327 12.8838 18.271 12.8823C17.8961 12.8845 17.5338 12.9894 17.2275 13.1795C16.9196 13.3705 16.6845 13.6371 16.5427 13.941L16.3084 14.443L14.1536 15.8975C14.0151 16.1469 13.9441 16.4222 13.9446 16.6995L13.9446 16.7155L13.9444 16.7316C13.9424 16.8664 13.9612 17.0012 14.0005 17.132L14.2996 18.1262L13.6425 18.9387C13.3994 19.2392 13.2743 19.6006 13.2767 19.9651L13.2767 19.9726L13.2767 19.9801C13.2761 20.4079 13.4471 20.8298 13.7712 21.1567L14.2834 21.6734L14.3417 22.3911C14.3669 22.7013 14.4808 23.0038 14.6773 23.2654C14.8741 23.5276 15.1477 23.7401 15.4731 23.8734L15.6163 23.932L15.7487 24.0112C16.0524 24.1926 16.3426 24.3928 16.6177 24.6105C16.9725 24.8827 17.4151 25.2821 17.9881 25.9983C18.5881 26.7483 18.9163 27.5868 19.0054 27.9123H19.528V27.0373C19.528 26.95 19.5261 26.8454 19.5239 26.7283C19.5132 26.1536 19.4967 25.2707 19.6756 24.5764C19.891 23.7404 20.3339 22.924 20.8884 22.1467C21.4429 21.3694 22.2807 20.8264 22.5958 20.7092C22.911 20.592 23.2301 20.4709 23.5413 20.1662C23.7902 19.9225 24.4801 19.2209 24.794 18.9006C25.149 19.1337 25.9261 19.6436 26.1942 19.8186C26.4623 19.9936 26.8166 20.092 26.9602 20.1194C26.9987 20.0881 27.1198 19.9936 27.2953 19.8654C27.4708 19.7373 28.161 19.2886 28.4841 19.0803L28.827 19.3205Z" fill="#333333"/>
<path fill-rule="evenodd" clip-rule="evenodd" d="M40.5596 25.3658C40.5596 25.3658 43.2116 27.7019 42.8619 29.5761C42.5122 31.4504 39.0588 31.9665 39.0588 31.9665C39.0588 39.5393 31.6733 39.0572 27.9872 38.345C26.7614 38.1081 25.9446 37.8458 25.9446 37.8458V39.2689C25.9446 39.2689 25.8679 39.5073 25.631 39.8429C25.0684 40.64 23.6025 41.9852 20.1161 41.9852C17.7833 42.1661 13.7904 40.6709 12.732 38.5626V32.1144C9.00177 29.3845 6.12769 25.7069 6.12769 20.9397C6.12769 16.9775 7.81639 13.1775 10.8223 10.3758C13.8282 7.57402 17.9051 6.00001 22.1561 6.00001C25.4023 5.99658 28.61 6.65481 31.5546 7.9286C33.8751 8.83941 35.9067 10.2889 37.4559 12.1389C38.8707 14.0823 39.6548 16.3645 39.7145 18.7124C39.7273 19.2519 39.7196 19.7635 39.7121 20.2585C39.6858 22.0061 39.6626 23.5454 40.5596 25.3658ZM38.8947 26.5895L38.72 26.235C37.5913 23.9444 37.6315 21.8187 37.6657 20.0178C37.674 19.5787 37.682 19.159 37.6725 18.7608C37.6234 16.8411 36.9891 14.966 35.8323 13.3546C34.512 11.7962 32.7812 10.5648 30.7946 9.785L30.7616 9.77206L30.7291 9.75801C28.0476 8.59798 25.122 7.99688 22.1583 8.00001L22.1561 8.00001C18.4152 8.00001 14.8466 9.38606 12.2306 11.8244C9.61801 14.2595 8.17024 17.5406 8.17024 20.9397C8.17024 24.8224 10.4899 27.9767 13.9548 30.5124L14.7746 31.1123V37.9825C15.1159 38.3791 15.7772 38.8731 16.7711 39.3027C17.9897 39.8294 19.2254 40.048 19.9549 39.9914L20.0354 39.9852H20.1161C22.1875 39.9852 23.1646 39.4277 23.5858 39.0864C23.7309 38.9687 23.8329 38.8584 23.9021 38.7708V35.085L26.5782 35.9445L26.5797 35.945L26.5812 35.9454L26.5965 35.9502C26.6136 35.9554 26.6424 35.9642 26.6821 35.9759C26.7615 35.9994 26.8842 36.0346 27.044 36.0771C27.3642 36.1624 27.8289 36.276 28.3885 36.384C29.5252 36.6032 30.9732 36.7833 32.3693 36.6945C33.7878 36.6043 34.9264 36.2519 35.6861 35.619C36.369 35.0501 37.0162 34.03 37.0162 31.9665V30.2486L38.7434 29.9905L38.7543 29.9887C38.7673 29.9865 38.7913 29.9824 38.825 29.9761C38.8925 29.9635 38.9966 29.9426 39.1254 29.9122C39.389 29.85 39.7264 29.755 40.0559 29.623C40.3981 29.486 40.6463 29.3427 40.7934 29.2197C40.8158 29.2009 40.8331 29.1851 40.8463 29.1721C40.8382 29.1188 40.8163 29.0232 40.7563 28.8778C40.6441 28.6063 40.4508 28.2892 40.2008 27.9589C39.9568 27.6365 39.6969 27.3513 39.4943 27.1444C39.3945 27.0425 39.3124 26.9635 39.2582 26.9125C39.2312 26.8871 39.2114 26.869 39.2001 26.8587L39.1935 26.8527L39.1923 26.8516L39.1912 26.8507L39.1899 26.8495L38.8947 26.5895ZM40.8833 29.1302C40.8834 29.1302 40.8831 29.1307 40.8824 29.1317L40.8805 29.1344C40.8822 29.1316 40.8832 29.1302 40.8833 29.1302Z" fill="#333333"/>
</svg>
